!!!OTL: 1917. Segnen der Kinder. / [Geistliches Wiegenlied.]
!!!ODT: 1430
!!!ARE: Europa, Mitteleuropa, Deutschland
!!!SCT: E1917
!!!TXL: @@DE
!!!YEM: Copyright 1995, estate of Helmut Schaffrath.
**kern	**text
*ICvox	*
*M4/4	*
*met(c)	*
*k[f#c#]	*
*D:	*
!LO:TX:a:t=Straßb. Hdſchr. um 1430.	!
!LO:TX:a:t=Melodie. Jn einem kripfli lit ein kind.	!
{4dd	Ach
=1	=1
4cc#	lie-
4b	-ber
4cc#	Her-
4dd	-re
=2	=2
4b/	Je-
4a	-ſu
4a}	Chriſt,
{4dd	weil
=3	=3
4cc#	du
4b	ein
4f#	Kind
4a	ge-
=4	=4
4g	-we-
4f#	-ſen
4f#}	biſt,
{4e	ſo
=5	=5
4f#	gieb
4g	auch
4g	die-
4f#	-ſem
=6	=6
4e	Kin-
4d	-de-
4d}	-lein
{4a	dein
=7	=7
4a	Gnad
4b	und
4cc#	auch
4dd	den
=8	=8
4a	Se-
4f#	-gen
4f#}	dein!
{4e	Ach
=9	=9
(4g	Je-
4f#	.
4d)	.
4f#	-ſus,
=10	=10
4g	Her-
4f#	-re
4f#}	mein,
{4e	be-
=11	=11
(4g	-hüt
4f#	.
4d)	.
4f#	das
=12	=12
4g	Kin-
4f#	-de-
4f#;}	-lein!
==	==
!!!AGN: Kinder - Lied, religioes, Wiegen -, Schlaf - Lied
!!!ONB: ESAC (Essen Associative Code) Database: ERK3
!!!AMT: simple quadruple
!!!AIN: vox
!!!EED: Helmut Schaffrath
!!!EEV: 1.0
!!!GTL: Einige Kinderlieder. e) Fromme Reime und Gebete. 
!!!URL-scan: https://rosdok.uni-rostock.de/mcrviewer/recordIdentifier/rosdok_ppn745177999/iview2/phys_0628.iview2?x=188.9681574111819&y=705.6196146029979&scale=0.7014306698522895&rotation=0&layout=singlePageLayout
!!!ENC: Anna Maria Matuszewska
!!!EEV: 2025/09/01
*-	*-
